X:66
T:Ty Bach Twt
T:Robin ddiog
R:jig
C:arr Jodee James
S:Jodee
H:ty bach twt is pastwn mawr under a different name (crm)
N:This arrangement is from the singing of Jodee.
D:Ar Log
D:Jodee.
Z:Lesl
M:6/8
K:Em
E|G2G F2F|E2E G2G|F2F E2E|B2F E2B|
E2E E2F|G2A B3|E2E E2F|G2A B3|GFE F2G|E3 E2G|
